X: 5
T: John Doherty's
R: reel
M: 4/4
L: 1/8
K: Ador
EAAB cABd|1 cABG A2AG:|2 cABG A2 ^cd|||:efe^c d2cd|efe^c d2cd|1 efe^c d2ed|^cABG A2^cd:|2 eage dged|=cAdB cAAG||


Tune 2120	Setting 15509

